X:1
T:Jesus Is Calling the Children
T:Jesus Is Calling the Children
T:George Marks Evans
T:T. W. Stewart, 1896
T:Public Domain Courtesy of the Cyber Hymnal™
C:George Marks Evans
Z:Public Domain
Z:Courtesy of the Cyber Hymnal™
%%score ( 1 2 ) ( 3 4 )
L:1/8
Q:1/4=90
M:6/8
K:Eb
V:1 treble 
V:2 treble 
V:3 bass 
V:4 bass 
V:1
 [GB]>[Ac][GB] [EG][FA][GB] | (e2 c) [GB]3 | [FA]3 (GB)[FA] | ([EG]3 [DF]2 [FB]) | %4
w: 1.~Je- sus is call- ing the|child- * ren,|Un- to * His|side; * *|
w: 2.~Je- sus is call- ing the|child- * ren,|Why should * they|stay * *|
w: 3.~Je- sus is call- ing the|child- * ren,|Call- ing * to-|day; * *|
w: 4.~Je- sus is call- ing the|child- * ren;|Here, Lord, * are|we, * *|
 [GB]>[Ac][GB] [EG][FA][GB] | (e2 c) [GB]3 | [FB]3 (=AB)[Fc] | [FB]6 || %8
w: O- pens His arms to re-|ceive * them,|O- pens * them|wide.|
w: Out in the wil- der- ness|wan- * dering,|Go- ing * a-|stray?|
w: Hast- en, each one, for His|bless- * ing,|Do not * de-|lay.|
w: Safe in the Good Shep- herd’s|keep- * ing|Ev- er * to|be.|
"^Refrain" [Be]3 ([ce][Bd])[Ac] | [GB]3 ([FA]2 [EB]) | [Ec]3 ([Dc][EB])[FA] | [EG]3 [DF]3 | %12
w: ||||
w: Gent- ly * to|lead them, *|Guard them * and|keep them,|
w: ||||
w: ||||
 [EG]3 ([FA][EG])[DA] | ([EB]2 [Ge]) !fermata![Ee]2 [EB] | ([GB]2 [FA]) [EG]2 [DF] | E4 x2 |] %16
w: ||||
w: Je- sus * is|call- * ing The|lambs * to His|fold.|
w: ||||
w: ||||
V:2
 x6 | A3 x3 | x3 E2 x | x6 | x6 | A3 x3 | x3 F2 x | x6 || x6 | x6 | x6 | x6 | x6 | x6 | x6 | %15
 E4 x2 |] %16
V:3
 [E,E]>[E,E][E,E] [E,B,][E,B,][E,E] | (C2 D) [E,E]3 | [D,B,]3 B,2 [A,C] | B,3 (B,2 D) | %4
 [E,E]>[E,E][E,E] [E,B,][E,B,][E,E] | (C2 D) [E,E]3 | [F,D]3 (CD)[F,E] | D6 || %8
 [G,E]3 [A,E]2 [A,E] | (E2 _D) ([F,C]2 [G,B,]) | A,3 ([F,A,][G,B,])[A,C] | B,3 [B,,B,]3 | %12
 [E,B,]3 B,2 [F,B,] | B,3 [A,C]2 [G,_D] | [A,C]3 B,2 [B,,A,] | [E,G,]6 |] %16
V:4
 x6 | E,3 x3 | x3 (E,G,) x | (B,3 B,,3) | x6 | E,3 x3 | x3 F,2 x | (B,3 A,3) || x6 | E,3 x3 | %10
 A,3 x3 | B,3 x3 | x3 (D,E,) x | (G,2 E,) x3 | x3 B,2 x | x6 |] %16

